X:1
T:090 - Contemplação
T:Letra: Isaac Watts (1674-1748)
T:Trad.: Justus Henry Nelson (1849-1931)
T:Música: Edward Miller (1731-1807)
M:3/4
L:1/4
Q:1/4=90
K:Ebmaj
V:1
E | ("Eb"GA)"Bb7"F | "Eb"E2G | B2"Ab"c | "Eb"B2"Bb"B | "Cm"e2d | "Ab"c2"Eb"B | ("Bb"BA)"Eb"G | ("Bb"GF)F | B2"F"c | "Bb"d2"Bb7"B | ("Eb"eG) "F"=A | "Bb"B2"Eb"E | "Bb7"A2"Eb"G | "Bb"F2"Cm"E | ("Ab"E/F/ "Eb/Bb"G) "Bb7"F | "Eb"E2 |]
w: 1.~O-lhan_doo le-nho cru-ci-al Em que mor-reu da gló_riao Rei,_ Às hon-ras, vi-da mun_da-nal Des-pre-zoe-ter-no vo__ta-rei.
w: 2.~E não_ per-mi-tas, meu Se-nhor, Que me glo-ri-e eu_ se-não_ Na mor-te do meu Re_den-tor, Que me sal-vou da per__di-ção.
w: 3.~O-lhai!_ Daen-san-güen-ta-da cruz, Tor-ren-tes de tris-te_zaea-mor!_ Que dor, quea-mor do meu_ Je-sus! Por mim, seu vil per-se__gui-dor!
w: 4.~Seo mun_do in-tei-ro fos-se meu, Se-riao-fer-ta sem_ va-lor;_ Tu-doo que sou, Se-nhor,_ é teu  Mi-nhaal-mae to-doo meu__ a-mor.
W: 
W:
W: 1. Olhando o lenho crucial
W: Em que morreu da glória o Rei,
W: Às honras, vida mundanal
W: Desprezo eterno votarei.
W: 
W: 2. E não permitas, meu Senhor,
W: Que me glorie eu senão
W: Na morte do meu Redentor,
W: Que me salvou da perdição.
W: 
W:
W:
W: 3. Olhai! Da ensangüentada cruz,
W: Torrentes de tristeza e amor!
W: Que dor, que amor do meu Jesus!
W: Por mim, seu vil perseguidor!
W: 
W: 4. Se o mundo inteiro fosse meu,
W: Seria oferta sem valor;
W: Tudo o que sou, Senhor, é teu -
W: Minha alma e todo o meu amor.
W:         
W: 





%wordsfont Times-Roman 13.0
%vocalfont Times-Roman 13.0
